X:1
T:Title
%%score { ( 1 4 ) | ( 2 3 ) }
L:1/8
M:6/8
K:D
V:1 treble nm="Grand Piano"
V:4 treble 
V:2 bass 
V:3 bass 
V:1
 z3 z2[Q:1/4=78] [FA] | [FA][DF][EG] [FA][Fd][Fd] | [Bd][Ac][GB] [FA]2 [FA] | %3
 [EG][DF][CE] [CE][DF][CEG] | [GB][FA][=F^G] [^FA]2 [FA] | [FA][DF][EG] [FA][Fd][Bd] | %6
 [Bd][Ac][GB] [FA]2 [FA] | ^GFE dcB |[M:5/8] BFG [CA]2 |[M:1/8] A | %10
[M:3/4] [GB]2 [EG]/[EG]/[CE] F[CEG] | [GB] [FA]2 [Fd]3 | [Fd][Ac] [GB][FA] [A,EG][A,DF] | %13
 [DF]3 E2 [CGA] | [DFA][A,DF] [A,EG] [DFA]2 [Fd]/[Fd]/ | de d B2 B | Ad d c2 A | %17
 d-[Ad-] [Gd-] [Fd]3[Q:1/4=77][Q:1/4=76][Q:1/4=75][Q:1/4=73][Q:1/4=72][Q:1/4=71][Q:1/4=70][Q:1/4=69][Q:1/4=68][Q:1/4=67][Q:1/4=65][Q:1/4=64][Q:1/4=63][Q:1/4=62][Q:1/4=61][Q:1/4=60] |] %18
V:2
 z3 z2 [D,D] | [D,D][D,A,][D,A,] [D,D][D,D][D,D] | [D,D][D,G,D][D,G,D] [D,D]2 [D,A,] | %3
 [A,,A,][A,,A,][A,,A,] [A,,A,][A,,A,]A,, | [D,D][D,D][D,D] [D,D]2 [D,D] | %5
 [D,D][D,A,][D,A,] [D,D][D,D][G,D] | [G,D][G,D][G,D] [D,D]2 [D,D] | %7
 [E,B,D][E,A,D][E,^G,D] [E,G,F][E,G,E][E,G,D] |[M:5/8] [E,^G,D][E,A,D][E,B,D] [A,,A,]2 | %9
[M:1/8] [A,,A,] |[M:3/4] [A,,A,]2 [A,,A,]<.[A,,A,] DA,, | [D,D] [D,D]2 [D,A,]3 | %12
 [D,A,][D,D] [D,D][D,D] E,F,/G,/ | A,6 | D,D, D, D,2 [D,A,]/[D,A,]/ | %15
 [G,B,G][G,B,G] [G,B,G] [G,DG]2 [G,DG] | [A,DF][A,DF] [A,DF] [A,EG]2 [A,CG] | z C B, A,3 |] %18
V:3
 x6 | x6 | x6 | x6 | x6 | x6 | x6 | x6 |[M:5/8] x5 |[M:1/8] x |[M:3/4] z2 z .[A,,A,]3 | x6 | x6 | %13
 z2 z C2 A,, | x6 | x6 | x6 | D,6 |] %18
V:4
 x6 | x6 | x6 | x6 | x6 | x6 | x6 | x6 |[M:5/8] x5 |[M:1/8] x |[M:3/4] x6 | x6 | x6 | x6 | x6 | %15
 x6 | x6 | .[DF]2 z2 z2 |] %18

